X: 4749
T: Boys Of Bluehill, The
R: hornpipe
M: 4/4
K: Dmajor
d2|BAFE D2 (3DFA|BABd eAde|fAAf fedc|decd B2
Bd|BAFE D2 (3DFA|BABd eAde|fAAf fedc|d6:|
z2|a2 a2 a2 ef|gdga bdag|fddf edfe|(3def ed B2
Bd|BAFE D2 (3DFA|BABd eAde|fAAf fedc|d6:|

